src/pos-icons/chart-line-stacked.svg

<svg height="24" viewBox="0 0 24 24" width="24" xmlns="http://www.w3.org/2000/svg"><path d="m17.45 15.18 4.55-8.37v12.19 2h-20v-18h2v12.54 3.46h.31 1.69.57l4.39-7.56zm4.55-12.18-.03.45-4.97 7.55-7-5-4 6v-9z"/></svg>

<?xml version="1.0" encoding="UTF-8"?><!DOCTYPE svg PUBLIC "-//W3C//DTD SVG 1.1//EN" "http://www.w3.org/Graphics/SVG/1.1/DTD/svg11.dtd"><svg xmlns="http://www.w3.org/2000/svg" xmlns:xlink="http://www.w3.org/1999/xlink" version="1.1" id="mdi-chart-line-stacked" width="24" height="24" viewBox="0 0 24 24"><path d="M17.45,15.18L22,6.81V19L22,21H2V3H4V15.54L4,19H4.31L6,19H6.57L10.96,11.44L17.45,15.18M22,3L21.97,3.45L17,11L10,6L6,12V3H22Z" /></svg>
